X: 16517
T: Haley's
R: jig
M: 6/8
K: Edorian
|:~E3~G3|~B3 e2f|gfe dBG|FAG FED|
~E3~G3|~B3 e2f|gfe dBA|1 GEE E2F:|2 GEE E2f||
~g3 gfe|dBG G2f|gfe dBG|FAG FED|
[1~g3 gfe|dBG G2 f|gfe dBG|GEE E2f:|
[2~E3 ~G3|~B3 e2f|gfe dBA|GEE E2F||

